src/images/icons/notification-disabled.svg

<?xml version="1.0" encoding="UTF-8"?>
<svg width="64px" height="80px" viewBox="0 0 64 80" version="1.1" xmlns="http://www.w3.org/2000/svg" xmlns:xlink="http://www.w3.org/1999/xlink">
    <!-- Generator: Sketch 49.3 (51167) - http://www.bohemiancoding.com/sketch -->
    <title>notification-disabled</title>
    <desc>Created with Sketch.</desc>
    <g id="Marvel" stroke="none" stroke-width="1" fill="none" fill-rule="evenodd">
        <g id="Marvel_Modal_Notifications_Off" transform="translate(-816.000000, -306.000000)" fill-rule="nonzero">
            <g id="Chat" transform="translate(369.000000, 7.000000)">
                <g id="Чат" transform="translate(0.000000, 17.000000)">
                    <g id="Group" transform="translate(247.000000, 282.000000)">
                        <g id="notification-disabled" transform="translate(200.000000, 0.000000)">
                            <path d="M60.7864062,59.070625 C59.095,57.524375 58.1248437,55.3320312 58.1248437,53.0557812 L58.1248437,37.4998438 C58.1248437,36.6370312 57.4253125,35.9373437 56.5623437,35.9373437 C55.699375,35.9373437 54.9998437,36.6370312 54.9998437,37.4998438 L54.9998437,53.0557812 C54.9998437,56.2073438 56.3404687,59.2403125 58.6779687,61.3771875 C59.518125,62.1451562 59.9998437,63.2378125 59.9998437,64.3753125 C59.9998437,66.6151562 58.1775,68.4375 55.9376562,68.4375 C40.7143229,68.4375 29.2968229,68.4375 21.6851562,68.4375 C19.8128601,68.4375 17.396532,68.4375 14.4361719,68.4375 C13.0137006,68.4375 10.5973725,68.4375 7.1871875,68.4375 C4.94734375,68.4375 3.125,66.6151562 3.125,64.3753125 C3.125,63.2379688 3.60671875,62.1453125 4.446875,61.3771875 C6.784375,59.2403125 8.125,56.2073438 8.125,53.0557812 L8.125,34.9998437 C8.125,22.0764062 18.6390625,11.5623437 31.5625,11.5623437 C33.6592896,11.5623437 36.5696725,12.1745575 40.2936489,13.3989849 L40.2936445,13.3989981 C41.2027212,13.6978986 42.2021378,13.4112071 42.8145312,12.6758594 L42.8145312,12.6758594 C43.2333717,12.1729256 43.1652006,11.4256799 42.6622667,11.0068394 C42.5686305,10.9288597 42.4635275,10.8657881 42.3506641,10.8198487 C39.849811,9.80189568 37.8771917,9.15861797 36.4328125,8.89 C37.0084375,7.9915625 37.34375,6.925 37.34375,5.78109375 C37.34375,2.5934375 34.7503125,0 31.5625,0 C28.3746875,0 25.78125,2.5934375 25.78125,5.78109375 C25.78125,6.92375 26.1157812,7.9890625 26.6901562,8.88703125 C14.3626563,11.1815625 5,22.0171875 5,34.9998437 L5,53.0557812 C5,55.3320312 4.03,57.524375 2.3384375,59.070625 C0.85234375,60.4290625 0,62.3625 0,64.3751563 C0,68.338125 3.22421875,71.5623437 7.1871875,71.5623437 C10.4089931,71.5623437 12.8253472,71.5623437 14.43625,71.5623437 C16.0471528,71.5623437 18.4635069,71.5623437 21.6853125,71.5623437 C22.4378125,76.3367187 26.58,79.9998437 31.5625,79.9998437 C36.545,79.9998437 40.6871875,76.3367187 41.4396875,71.5623437 L55.9378125,71.5623437 C59.9007813,71.5623437 63.125,68.338125 63.125,64.3751563 C63.125,62.3625 62.2726562,60.4290625 60.7864062,59.070625 Z M31.5625,3.12484375 C33.0271875,3.12484375 34.21875,4.31640625 34.21875,5.7809375 C34.21875,7.245625 33.0271875,8.4371875 31.5625,8.4371875 C30.0978125,8.4371875 28.90625,7.245625 28.90625,5.7809375 C28.90625,4.31640625 30.0978125,3.12484375 31.5625,3.12484375 Z M31.5625,76.8748437 C28.3092188,76.8748437 25.5784375,74.6026562 24.86875,71.5623437 L38.25625,71.5623437 C37.5465625,74.6026562 34.8157813,76.8748437 31.5625,76.8748437 Z" id="Shape" fill="#C7CCD1"></path>
                            <polygon id="Rectangle-5" fill="#FFFFFF" points="2.22044605e-16 54 21.7146204 54 21.7146204 72 2.22044605e-16 72"></polygon>
                            <rect id="Rectangle-2" fill="#C7CCD1" transform="translate(33.500000, 39.000000) rotate(45.000000) translate(-33.500000, -39.000000) " x="32" y="3" width="3" height="72" rx="1.5"></rect>
                            <path d="M14.195,33.4048438 C13.3320312,33.4048438 12.6325,34.1045313 12.6325,34.9673438 L12.6325,34.9998438 C12.6325,35.8626563 13.3320312,36.5623438 14.195,36.5623438 C15.0579687,36.5623438 15.7575,35.8626563 15.7575,34.9998438 L15.7575,34.9673438 C15.7575,34.1045313 15.0579687,33.4048438 14.195,33.4048438 Z" id="Shape" fill="#C7CCD1"></path>
                            <path d="M31.695,15.9373437 C24.0276562,15.9373437 17.1371875,20.4979687 14.1409375,27.5564062 C13.80375,28.350625 14.174375,29.2679687 14.9685937,29.6051562 C15.1678125,29.6896875 15.3748437,29.7298437 15.5784375,29.7298437 C16.1865625,29.7298437 16.7648437,29.3725 17.0175,28.7775 C19.5228125,22.8757812 25.2840625,19.0623437 31.695,19.0623437 C32.5579687,19.0623437 33.2575,18.3626562 33.2575,17.4998437 C33.2575,16.6370312 32.5579687,15.9373437 31.695,15.9373437 Z" id="Shape" fill="#C7CCD1"></path>
                        </g>
                    </g>
                </g>
            </g>
        </g>
    </g>
</svg>

<svg width="64" height="80" viewBox="0 0 64 80" xmlns="http://www.w3.org/2000/svg">
    <title>
        notification-disabled
    </title>
    <g fill-rule="nonzero" fill="none">
        <path d="M60.786 59.07a8.174 8.174 0 0 1-2.661-6.014V37.5a1.563 1.563 0 0 0-3.125 0v15.556c0 3.151 1.34 6.184 3.678 8.321A4.071 4.071 0 0 1 60 64.375a4.067 4.067 0 0 1-4.062 4.063H7.187a4.067 4.067 0 0 1-4.062-4.063c0-1.137.482-2.23 1.322-2.998a11.306 11.306 0 0 0 3.678-8.321V35c0-12.924 10.514-23.438 23.438-23.438 2.096 0 5.007.613 8.73 1.837.91.299 1.91.012 2.522-.723a1.185 1.185 0 0 0-.464-1.856c-2.501-1.018-4.474-1.661-5.918-1.93.575-.898.91-1.965.91-3.109A5.788 5.788 0 0 0 31.564 0a5.788 5.788 0 0 0-5.782 5.781c0 1.143.335 2.208.91 3.106C14.362 11.182 5 22.017 5 35v18.056c0 2.276-.97 4.468-2.662 6.015A7.203 7.203 0 0 0 0 64.375c0 3.963 3.224 7.187 7.187 7.187H21.685C22.438 76.337 26.58 80 31.563 80c4.982 0 9.124-3.663 9.877-8.438h14.498c3.963 0 7.187-3.224 7.187-7.187a7.203 7.203 0 0 0-2.339-5.304zM31.562 3.126A2.66 2.66 0 0 1 34.22 5.78a2.66 2.66 0 0 1-2.657 2.656 2.66 2.66 0 0 1-2.656-2.656 2.66 2.66 0 0 1 2.657-2.656zm0 73.75c-3.253 0-5.984-2.272-6.693-5.313h13.387c-.71 3.04-3.44 5.313-6.694 5.313z" fill="#C7CCD1"/>
        <path fill="#FFF" d="M0 54h21.715v18H0z"/>
        <rect fill="#C7CCD1" transform="rotate(45 33.5 39)" x="32" y="3" width="3" height="72" rx="1.5"/>
        <path d="M14.195 33.405c-.863 0-1.563.7-1.563 1.562V35a1.563 1.563 0 0 0 3.126 0v-.033c0-.862-.7-1.562-1.563-1.562z" fill="#C7CCD1"/>
        <path d="M31.695 15.937a19.04 19.04 0 0 0-17.554 11.62 1.563 1.563 0 0 0 2.876 1.22 15.92 15.92 0 0 1 14.678-9.715 1.563 1.563 0 0 0 0-3.125z" fill="#C7CCD1"/>
    </g>
</svg>
